X: 6664
T: Ceiliog Y Grug
R: polka
M: 2/4
K: Cmajor
|:C>E GE|AG EC|cB cG|AG EC|
B,>D GD|BG dc|Bd gd|ec GE|
C>E GE|AG EC|cB cG|AG EC|
B,>D GB,|CE Gc|dG AB|c2 c2:|
|:G>B dB|fd BG|ce ag|fd BG|
F>A cA|fe dc|dc AF|AG FD|
C>E GE|AG EC|cB cG|AG EC|
B,>D GB,|CE Gc|dG AB|c2c2:|

